icon-themes/breeze_svg/cmd/32/dbsortingandgrouping.svg

<svg viewBox="0 0 32 32" xmlns="http://www.w3.org/2000/svg"><path d="m8.5 7a1.5 1.5 0 0 0 -1.5 1.5 1.5 1.5 0 0 0 1.5 1.5 1.5 1.5 0 0 0 1.5-1.5 1.5 1.5 0 0 0 -1.5-1.5zm0 7a1.5 1.5 0 0 0 -1.5 1.5 1.5 1.5 0 0 0 1.5 1.5 1.5 1.5 0 0 0 1.5-1.5 1.5 1.5 0 0 0 -1.5-1.5z" fill="#27ae60"/><path d="m8.5 21a1.5 1.5 0 0 0 -1.5 1.5 1.5 1.5 0 0 0 1.5 1.5 1.5 1.5 0 0 0 1.5-1.5 1.5 1.5 0 0 0 -1.5-1.5z" fill="#da4453"/><path d="m4 4v24h24v-24zm1 1h22v22h-22zm7 2v1h13v-1zm9 2v14.085938l-3.792969-3.792969-.707031.707031 4 4 1 1 1-1 4-4-.707031-.707031-3.792969 3.792969v-14.085938zm-9 1v1h7v-1zm0 4v1h7v-1zm0 3v1h5v-1zm0 4v1h4v-1zm0 3v1h6v-1z" fill="#4d4d4d"/></svg>

<svg xmlns="http://www.w3.org/2000/svg" viewBox="0 0 32 32">
    <path
       style="fill:#27ae60"
       d="M 8.5 7 A 1.5 1.5 0 0 0 7 8.5 A 1.5 1.5 0 0 0 8.5 10 A 1.5 1.5 0 0 0 10 8.5 A 1.5 1.5 0 0 0 8.5 7 z M 8.5 14 A 1.5 1.5 0 0 0 7 15.5 A 1.5 1.5 0 0 0 8.5 17 A 1.5 1.5 0 0 0 10 15.5 A 1.5 1.5 0 0 0 8.5 14 z " />
    <path
       style="fill:#da4453"
       d="M 8.5 21 A 1.5 1.5 0 0 0 7 22.5 A 1.5 1.5 0 0 0 8.5 24 A 1.5 1.5 0 0 0 10 22.5 A 1.5 1.5 0 0 0 8.5 21 z " />
    <path
       style="fill:#4d4d4d"
       d="M 4 4 L 4 28 L 28 28 L 28 4 L 4 4 z M 5 5 L 27 5 L 27 27 L 5 27 L 5 5 z M 12 7 L 12 8 L 25 8 L 25 7 L 12 7 z M 20.419922 9 L 20.419922 23.085938 L 16.626953 19.292969 L 15.919922 20 L 19.919922 24 L 20.919922 25 L 21.919922 24 L 25.919922 20 L 25.212891 19.292969 L 21.419922 23.085938 L 21.419922 9 L 20.419922 9 z M 12 10 L 12 11 L 19 11 L 19 10 L 12 10 z M 12 14 L 12 15 L 19 15 L 19 14 L 12 14 z M 12 17 L 12 18 L 17 18 L 17 17 L 12 17 z M 12 21 L 12 22 L 16 22 L 16 21 L 12 21 z M 12 24 L 12 25 L 18 25 L 18 24 L 12 24 z " />
</svg>
